docs/assets/infinity-icon.svg

<svg width="36" height="18" viewBox="0 0 36 18" fill="none" xmlns="http://www.w3.org/2000/svg">
<path d="M26.8248 17.16C25.3048 17.16 23.9982 16.9467 22.9048 16.52C21.8115 16.0667 20.8648 15.4667 20.0648 14.72C19.2915 13.9467 18.5982 13.12 17.9848 12.24C17.3982 11.3333 16.8248 10.44 16.2648 9.56C15.7315 8.65333 15.1582 7.82667 14.5448 7.08C13.9315 6.30667 13.2248 5.69333 12.4248 5.24C11.6515 4.78667 10.7048 4.56 9.58484 4.56C8.70484 4.56 7.90484 4.76 7.18484 5.16C6.49151 5.56 5.94484 6.09333 5.54484 6.76C5.17151 7.4 4.98484 8.14667 4.98484 9C4.98484 9.82667 5.17151 10.5733 5.54484 11.24C5.94484 11.9067 6.49151 12.44 7.18484 12.84C7.90484 13.24 8.70484 13.44 9.58484 13.44C10.7048 13.44 11.6515 13.2133 12.4248 12.76C13.2248 12.3067 13.9315 11.7067 14.5448 10.96C15.1582 10.1867 15.7315 9.36 16.2648 8.48C16.8248 7.6 17.3982 6.70667 17.9848 5.8C18.5982 4.89333 19.2915 4.06667 20.0648 3.32C20.8648 2.54667 21.8115 1.94667 22.9048 1.52C23.9982 1.06667 25.3048 0.839999 26.8248 0.839999C28.3982 0.839999 29.7982 1.18667 31.0248 1.88C32.2515 2.57333 33.2248 3.53333 33.9448 4.76C34.6648 5.98667 35.0248 7.38667 35.0248 8.96C35.0248 10.5333 34.6648 11.9467 33.9448 13.2C33.2248 14.4267 32.2515 15.4 31.0248 16.12C29.7982 16.8133 28.3982 17.16 26.8248 17.16ZM9.22484 17.16C7.65151 17.16 6.23818 16.8133 4.98484 16.12C3.75818 15.4 2.78484 14.4267 2.06484 13.2C1.34484 11.9467 0.984844 10.5467 0.984844 9C0.984844 7.42667 1.34484 6.02667 2.06484 4.8C2.78484 3.54667 3.75818 2.57333 4.98484 1.88C6.23818 1.18667 7.65151 0.839999 9.22484 0.839999C10.7715 0.839999 12.0782 1.06667 13.1448 1.52C14.2382 1.94667 15.1715 2.54667 15.9448 3.32C16.7448 4.06667 17.4382 4.89333 18.0248 5.8C18.6115 6.68 19.1715 7.57333 19.7048 8.48C20.2648 9.36 20.8515 10.1867 21.4648 10.96C22.0782 11.7067 22.7848 12.3067 23.5848 12.76C24.3848 13.2133 25.3315 13.44 26.4248 13.44C27.3048 13.44 28.0915 13.24 28.7848 12.84C29.4782 12.44 30.0248 11.9067 30.4248 11.24C30.8248 10.5733 31.0248 9.81333 31.0248 8.96C31.0248 8.13333 30.8248 7.38667 30.4248 6.72C30.0248 6.05333 29.4782 5.53333 28.7848 5.16C28.0915 4.76 27.3048 4.56 26.4248 4.56C25.3315 4.56 24.3848 4.78667 23.5848 5.24C22.7848 5.69333 22.0782 6.30667 21.4648 7.08C20.8515 7.82667 20.2648 8.64 19.7048 9.52C19.1715 10.4 18.6115 11.2933 18.0248 12.2C17.4382 13.1067 16.7448 13.9467 15.9448 14.72C15.1715 15.4667 14.2382 16.0667 13.1448 16.52C12.0782 16.9467 10.7715 17.16 9.22484 17.16Z" fill="#3A2657"/>
</svg>

<svg xmlns="http://www.w3.org/2000/svg" width="36" height="18" fill="none" xmlns:v="https://vecta.io/nano"><path d="M26.825 17.16c-1.52 0-2.827-.213-3.92-.64-1.093-.453-2.04-1.053-2.84-1.8a18.31 18.31 0 0 1-2.08-2.48l-1.72-2.68a19.36 19.36 0 0 0-1.72-2.48c-.613-.773-1.32-1.387-2.12-1.84-.773-.453-1.72-.68-2.84-.68-.88 0-1.68.2-2.4.6-.693.4-1.24.933-1.64 1.6-.373.64-.56 1.387-.56 2.24 0 .827.187 1.573.56 2.24.4.667.947 1.2 1.64 1.6.72.4 1.52.6 2.4.6 1.12 0 2.067-.227 2.84-.68.8-.453 1.507-1.053 2.12-1.8a24 24 0 0 0 1.72-2.48l1.72-2.68a15.54 15.54 0 0 1 2.08-2.48 8.46 8.46 0 0 1 2.84-1.8c1.093-.453 2.4-.68 3.92-.68 1.573 0 2.973.347 4.2 1.04a7.76 7.76 0 0 1 2.92 2.88c.72 1.227 1.08 2.627 1.08 4.2s-.36 2.987-1.08 4.24c-.72 1.227-1.693 2.2-2.92 2.92-1.227.693-2.627 1.04-4.2 1.04zm-17.6 0c-1.573 0-2.987-.347-4.24-1.04-1.227-.72-2.2-1.693-2.92-2.92-.72-1.253-1.08-2.653-1.08-4.2 0-1.573.36-2.973 1.08-4.2.72-1.253 1.693-2.227 2.92-2.92C6.238 1.187 7.652.84 9.225.84c1.547 0 2.853.227 3.92.68 1.093.427 2.027 1.027 2.8 1.8.8.747 1.493 1.573 2.08 2.48l1.68 2.68a29.31 29.31 0 0 0 1.76 2.48c.613.747 1.32 1.347 2.12 1.8s1.747.68 2.84.68c.88 0 1.667-.2 2.36-.6s1.24-.933 1.64-1.6.6-1.427.6-2.28c0-.827-.2-1.573-.6-2.24s-.947-1.187-1.64-1.56c-.693-.4-1.48-.6-2.36-.6-1.093 0-2.04.227-2.84.68s-1.507 1.067-2.12 1.84a24.9 24.9 0 0 0-1.76 2.44l-1.68 2.68a14.31 14.31 0 0 1-2.08 2.52c-.773.747-1.707 1.347-2.8 1.8-1.067.427-2.373.64-3.92.64z" fill="#3a2657"/></svg>
